X:1
T:Partition sans titre
C:Compositeur / Arrangeur
L:1/8
M:4/4
I:linebreak $
K:D
V:1 treble nm="Violon" snm="Vln."
V:1
"D" d2 DD DFAd |"A" cBBB"G" Bdef | Pg2 AA"A" Acea |"D" fd[Dd][Dd] [Dd]2 (3ABc |"D" d2 DD DFAd | %5
"A" cBBB"G" Bdef | Pg2 ef bg"A"ec |"D" d2 [Dd][Dd] [Dd]2 (3ABc ::"D" d2 dc defg | a2 aa a2 af | %10
"G" gbge"D" fafd |"A" egec PB2 (3ABc |"D" d2 dc defg | a2 aa a2 af |"G" gbge"D" fafd | %15
"G" Bgec"D" d2 (3ABc :| %16
